Numix-Circle/48x48/apps/am2r.svg

<?xml version="1.0" encoding="UTF-8" standalone="no"?>
<svg
   xmlns:dc="http://purl.org/dc/elements/1.1/"
   xmlns:cc="http://creativecommons.org/ns#"
   xmlns:rdf="http://www.w3.org/1999/02/22-rdf-syntax-ns#"
   xmlns:svg="http://www.w3.org/2000/svg"
   xmlns="http://www.w3.org/2000/svg"
   xmlns:xlink="http://www.w3.org/1999/xlink"
   xmlns:sodipodi="http://sodipodi.sourceforge.net/DTD/sodipodi-0.dtd"
   xmlns:inkscape="http://www.inkscape.org/namespaces/inkscape"
   viewBox="0 0 48 48"
   id="svg2"
   version="1.1"
   inkscape:version="0.48.5 r10040"
   width="100%"
   height="100%"
   sodipodi:docname="am2r.svg">
  <metadata
     id="metadata61">
    <rdf:RDF>
      <cc:Work
         rdf:about="">
        <dc:format>image/svg+xml</dc:format>
        <dc:type
           rdf:resource="http://purl.org/dc/dcmitype/StillImage" />
      </cc:Work>
    </rdf:RDF>
  </metadata>
  <sodipodi:namedview
     pagecolor="#ffffff"
     bordercolor="#666666"
     borderopacity="1"
     objecttolerance="10"
     gridtolerance="10"
     guidetolerance="10"
     inkscape:pageopacity="0"
     inkscape:pageshadow="2"
     inkscape:window-width="1280"
     inkscape:window-height="998"
     id="namedview59"
     showgrid="true"
     inkscape:zoom="2.8284271"
     inkscape:cx="-54.707517"
     inkscape:cy="29.153232"
     inkscape:window-x="0"
     inkscape:window-y="0"
     inkscape:window-maximized="1"
     inkscape:current-layer="svg2">
    <inkscape:grid
       type="xygrid"
       id="grid3884" />
  </sodipodi:namedview>
  <defs
     id="defs4">
    <linearGradient
       id="linearGradient4058">
      <stop
         style="stop-color:#e52f33;stop-opacity:1;"
         offset="0"
         id="stop4060" />
      <stop
         style="stop-color:#e74145;stop-opacity:1;"
         offset="1"
         id="stop4062" />
    </linearGradient>
    <linearGradient
       id="linearGradient3764"
       x1="1"
       x2="47"
       gradientUnits="userSpaceOnUse"
       gradientTransform="matrix(0,-1,1,0,-1.5e-6,47.999998)">
      <stop
         stop-color="#7fa935"
         stop-opacity="1"
         id="stop7" />
      <stop
         offset="1"
         stop-color="#89b83a"
         stop-opacity="1"
         id="stop9" />
    </linearGradient>
    <clipPath
       id="clipPath-749639687">
      <g
         transform="translate(0,-1004.3622)"
         id="g12">
        <path
           d="m -24 13 c 0 1.105 -0.672 2 -1.5 2 -0.828 0 -1.5 -0.895 -1.5 -2 0 -1.105 0.672 -2 1.5 -2 0.828 0 1.5 0.895 1.5 2 z"
           transform="matrix(15.333333,0,0,11.5,414.99999,878.8622)"
           fill="#1890d0"
           id="path14" />
      </g>
    </clipPath>
    <clipPath
       id="clipPath-761924835">
      <g
         transform="translate(0,-1004.3622)"
         id="g17">
        <path
           d="m -24 13 c 0 1.105 -0.672 2 -1.5 2 -0.828 0 -1.5 -0.895 -1.5 -2 0 -1.105 0.672 -2 1.5 -2 0.828 0 1.5 0.895 1.5 2 z"
           transform="matrix(15.333333,0,0,11.5,414.99999,878.8622)"
           fill="#1890d0"
           id="path19" />
      </g>
    </clipPath>
    <linearGradient
       inkscape:collect="always"
       xlink:href="#linearGradient4058"
       id="linearGradient4064"
       x1="1"
       y1="24"
       x2="47"
       y2="24"
       gradientUnits="userSpaceOnUse" />
    <linearGradient
       inkscape:collect="always"
       xlink:href="#linearGradient4058"
       id="linearGradient4066"
       gradientUnits="userSpaceOnUse"
       x1="1"
       y1="24"
       x2="47"
       y2="24" />
  </defs>
  <g
     id="g21">
    <path
       d="m 36.31 5 c 5.859 4.062 9.688 10.831 9.688 18.5 c 0 12.426 -10.07 22.5 -22.5 22.5 c -7.669 0 -14.438 -3.828 -18.5 -9.688 c 1.037 1.822 2.306 3.499 3.781 4.969 c 4.085 3.712 9.514 5.969 15.469 5.969 c 12.703 0 23 -10.298 23 -23 c 0 -5.954 -2.256 -11.384 -5.969 -15.469 c -1.469 -1.475 -3.147 -2.744 -4.969 -3.781 z m 4.969 3.781 c 3.854 4.113 6.219 9.637 6.219 15.719 c 0 12.703 -10.297 23 -23 23 c -6.081 0 -11.606 -2.364 -15.719 -6.219 c 4.16 4.144 9.883 6.719 16.219 6.719 c 12.703 0 23 -10.298 23 -23 c 0 -6.335 -2.575 -12.06 -6.719 -16.219 z"
       opacity="0.05"
       id="path23" />
    <path
       d="m 41.28 8.781 c 3.712 4.085 5.969 9.514 5.969 15.469 c 0 12.703 -10.297 23 -23 23 c -5.954 0 -11.384 -2.256 -15.469 -5.969 c 4.113 3.854 9.637 6.219 15.719 6.219 c 12.703 0 23 -10.298 23 -23 c 0 -6.081 -2.364 -11.606 -6.219 -15.719 z"
       opacity="0.1"
       id="path25" />
    <path
       d="m 31.25 2.375 c 8.615 3.154 14.75 11.417 14.75 21.13 c 0 12.426 -10.07 22.5 -22.5 22.5 c -9.708 0 -17.971 -6.135 -21.12 -14.75 a 23 23 0 0 0 44.875 -7 a 23 23 0 0 0 -16 -21.875 z"
       opacity="0.2"
       id="path27" />
  </g>
  <g
     id="g29"
     style="fill:url(#linearGradient4064);fill-opacity:1"
     transform="matrix(0,-1,1,0,0,48)">
    <path
       d="M 24,1 C 36.703,1 47,11.297 47,24 47,36.703 36.703,47 24,47 11.297,47 1,36.703 1,24 1,11.297 11.297,1 24,1 z"
       id="path31"
       style="fill:url(#linearGradient4066);fill-opacity:1"
       inkscape:connector-curvature="0" />
  </g>
  <g
     id="g33" />
  <g
     id="g55">
    <path
       d="m 40.03 7.531 c 3.712 4.084 5.969 9.514 5.969 15.469 0 12.703 -10.297 23 -23 23 c -5.954 0 -11.384 -2.256 -15.469 -5.969 4.178 4.291 10.01 6.969 16.469 6.969 c 12.703 0 23 -10.298 23 -23 0 -6.462 -2.677 -12.291 -6.969 -16.469 z"
       opacity="0.1"
       id="path57" />
  </g>
  <path
     id="path4045"
     d="m 39.75025,7.344 -0.0625,0.0625 -7.75,4.3125 -14.9375,8.28125 0,9 2.34375,0.9375 1.40625,0.5625 -0.96875,1.03125 -1.03125,1.09375 -3.53125,3.71875 -5.5,5.84375 c 0.401266,0.357078 0.824306,0.702602 1.25,1.03125 l 8.0625,-4.46875 13.96875,-7.75 0,-9 -2.34375,-0.9375 -1.40625,-0.5625 0.96875,-1.03125 3.78125,-4 1.28125,-1.34375 5.40625,-5.71875 0.125,-0.09375 C 40.465831,7.9838836 40.117128,7.6509405 39.75025,7.344 z m -14.75,2.65625 c -8.284272,0 -15,6.715728 -15,15 0,4.036706 1.594821,7.683032 4.1875,10.375 l 4.1875,-4.4375 -2.375,-0.9375 0,-11 14.375,-7.96875 c -1.670173,-0.642015 -3.478726,-1.03125 -5.375,-1.03125 z m 11.59375,0.6875 -2.375,2.5 -10.21875,10.8125 1,1 3.28125,-3.46875 3.71875,1.46875 0,7 -14.4375,8 -4.15625,2.3125 2.90625,-3.09375 9.6875,-10.21875 -1,-1 -3.28125,3.46875 -3.71875,-1.46875 0,-7 18.59375,-10.3125 z m -0.34375,4.4375 -4.625,4.9375 2.375,0.9375 0,11 -13.25,7.375 c 1.345718,0.396239 2.775968,0.625 4.25,0.625 8.284272,0 15,-6.715728 15,-15 0,-3.790754 -1.430685,-7.240877 -3.75,-9.875 z"
     style="opacity:0.108;fill:#000000;fill-opacity:1;fill-rule:nonzero;stroke:none"
     inkscape:connector-curvature="0" />
  <path
     style="opacity:1;fill:#f8e10f;fill-opacity:1;fill-rule:nonzero;stroke:none"
     d="M 38.75 6.34375 L 38.6875 6.40625 L 30.9375 10.71875 L 16 19 L 16 28 L 18.34375 28.9375 L 19.75 29.5 L 18.78125 30.53125 L 17.75 31.625 L 14.21875 35.34375 L 8.71875 41.1875 C 9.1200157 41.544578 9.5430559 41.890102 9.96875 42.21875 L 18.03125 37.75 L 32 30 L 32 21 L 29.65625 20.0625 L 28.25 19.5 L 29.21875 18.46875 L 33 14.46875 L 34.28125 13.125 L 39.6875 7.40625 L 39.8125 7.3125 C 39.465581 6.9836336 39.116878 6.6506905 38.75 6.34375 z M 24 9 C 15.715728 9 9 15.715728 9 24 C 9 28.036706 10.594821 31.683032 13.1875 34.375 L 17.375 29.9375 L 15 29 L 15 18 L 29.375 10.03125 C 27.704827 9.3892346 25.896274 9 24 9 z M 35.59375 9.6875 L 33.21875 12.1875 L 23 23 L 24 24 L 27.28125 20.53125 L 31 22 L 31 29 L 16.5625 37 L 12.40625 39.3125 L 15.3125 36.21875 L 25 26 L 24 25 L 20.71875 28.46875 L 17 27 L 17 20 L 35.59375 9.6875 z M 35.25 14.125 L 30.625 19.0625 L 33 20 L 33 31 L 19.75 38.375 C 21.095718 38.771239 22.525968 39 24 39 C 32.284272 39 39 32.284272 39 24 C 39 20.209246 37.569315 16.759123 35.25 14.125 z "
     id="path3886" />
</svg>

<svg xmlns="http://www.w3.org/2000/svg" viewBox="0 0 48 48">
 <defs>
  <linearGradient id="linearGradient4064" x1="1" x2="47" gradientUnits="userSpaceOnUse">
   <stop style="stop-color:#e52f33;stop-opacity:1"/>
   <stop offset="1" style="stop-color:#e74145;stop-opacity:1"/>
  </linearGradient>
 </defs>
 <g>
  <path d="m 36.31 5 c 5.859 4.062 9.688 10.831 9.688 18.5 c 0 12.426 -10.07 22.5 -22.5 22.5 c -7.669 0 -14.438 -3.828 -18.5 -9.688 c 1.037 1.822 2.306 3.499 3.781 4.969 c 4.085 3.712 9.514 5.969 15.469 5.969 c 12.703 0 23 -10.298 23 -23 c 0 -5.954 -2.256 -11.384 -5.969 -15.469 c -1.469 -1.475 -3.147 -2.744 -4.969 -3.781 z m 4.969 3.781 c 3.854 4.113 6.219 9.637 6.219 15.719 c 0 12.703 -10.297 23 -23 23 c -6.081 0 -11.606 -2.364 -15.719 -6.219 c 4.16 4.144 9.883 6.719 16.219 6.719 c 12.703 0 23 -10.298 23 -23 c 0 -6.335 -2.575 -12.06 -6.719 -16.219 z" style="opacity:0.05"/>
  <path d="m 41.28 8.781 c 3.712 4.085 5.969 9.514 5.969 15.469 c 0 12.703 -10.297 23 -23 23 c -5.954 0 -11.384 -2.256 -15.469 -5.969 c 4.113 3.854 9.637 6.219 15.719 6.219 c 12.703 0 23 -10.298 23 -23 c 0 -6.081 -2.364 -11.606 -6.219 -15.719 z" style="opacity:0.1"/>
  <path d="m 31.25 2.375 c 8.615 3.154 14.75 11.417 14.75 21.13 c 0 12.426 -10.07 22.5 -22.5 22.5 c -9.708 0 -17.971 -6.135 -21.12 -14.75 a 23 23 0 0 0 44.875 -7 a 23 23 0 0 0 -16 -21.875 z" style="opacity:0.2"/>
 </g>
 <g transform="matrix(0,-1,1,0,0,48)" style="fill:url(#linearGradient4064);fill-opacity:1">
  <path d="M 24,1 C 36.703,1 47,11.297 47,24 47,36.703 36.703,47 24,47 11.297,47 1,36.703 1,24 1,11.297 11.297,1 24,1 z"/>
 </g>
 <g>
  <path d="m 40.03 7.531 c 3.712 4.084 5.969 9.514 5.969 15.469 0 12.703 -10.297 23 -23 23 c -5.954 0 -11.384 -2.256 -15.469 -5.969 4.178 4.291 10.01 6.969 16.469 6.969 c 12.703 0 23 -10.298 23 -23 0 -6.462 -2.677 -12.291 -6.969 -16.469 z" style="opacity:0.1"/>
 </g>
 <path d="m 39.75 7.344 -0.063 0.063 -7.75 4.313 -14.938 8.281 0 9 2.344 0.938 1.406 0.563 -0.969 1.031 -1.031 1.094 -3.531 3.719 -5.5 5.844 c 0.401 0.357 0.824 0.703 1.25 1.031 l 8.06 -4.469 13.969 -7.75 0 -9 -2.344 -0.938 -1.406 -0.563 0.969 -1.031 3.781 -4 1.281 -1.344 5.406 -5.719 0.125 -0.094 c -0.347 -0.329 -0.696 -0.662 -1.063 -0.969 z m -14.75 2.656 c -8.284 0 -15 6.716 -15 15 0 4.04 1.595 7.683 4.188 10.375 l 4.188 -4.438 -2.375 -0.938 0 -11 14.375 -7.969 c -1.67 -0.642 -3.479 -1.031 -5.375 -1.031 z m 11.594 0.688 -2.375 2.5 -10.219 10.813 1 1 3.281 -3.469 3.719 1.469 0 7 -14.438 8 -4.156 2.313 2.906 -3.094 9.688 -10.219 -1 -1 -3.281 3.469 -3.719 -1.469 0 -7 18.594 -10.313 z m -0.344 4.438 -4.625 4.938 2.375 0.938 0 11 -13.25 7.375 c 1.346 0.396 2.776 0.625 4.25 0.625 8.284 0 15 -6.716 15 -15 0 -3.791 -1.431 -7.241 -3.75 -9.875 z" style="fill:#000;opacity:0.108;fill-opacity:1;stroke:none;fill-rule:nonzero"/>
 <path d="m 38.75 6.344 l -0.063 0.063 l -7.75 4.313 l -14.938 8.281 l 0 9 l 2.344 0.938 l 1.406 0.563 l -0.969 1.031 l -1.031 1.094 l -3.531 3.719 l -5.5 5.844 c 0.401 0.357 0.824 0.703 1.25 1.031 l 8.06 -4.469 l 13.969 -7.75 l 0 -9 l -2.344 -0.938 l -1.406 -0.563 l 0.969 -1.031 l 3.781 -4 l 1.281 -1.344 l 5.406 -5.719 l 0.125 -0.094 c -0.347 -0.329 -0.696 -0.662 -1.063 -0.969 z m -14.75 2.656 c -8.284 0 -15 6.716 -15 15 c 0 4.04 1.595 7.683 4.188 10.375 l 4.188 -4.438 l -2.375 -0.938 l 0 -11 l 14.375 -7.969 c -1.67 -0.642 -3.479 -1.031 -5.375 -1.031 z m 11.594 0.688 l -2.375 2.5 l -10.219 10.813 l 1 1 l 3.281 -3.469 l 3.719 1.469 l 0 7 l -14.438 8 l -4.156 2.313 l 2.906 -3.094 l 9.688 -10.219 l -1 -1 l -3.281 3.469 l -3.719 -1.469 l 0 -7 l 18.594 -10.313 z m -0.344 4.438 l -4.625 4.938 l 2.375 0.938 l 0 11 l -13.25 7.375 c 1.346 0.396 2.776 0.625 4.25 0.625 c 8.284 0 15 -6.716 15 -15 c 0 -3.791 -1.431 -7.241 -3.75 -9.875 z" style="fill:#f8e10f;opacity:1;fill-opacity:1;stroke:none;fill-rule:nonzero"/>
</svg>
